X:140
T:Killie Kallom. Ru1.140
T:Ghillie Callum,aka. Ru1.140
M:C|
L:1/8
W:Cast off two Couple .| Lead up to the Top
W:foot it & cast off ? Hands round with the 2d
W:Couple .|. Right Hand & Left with the 2d Couple ?
Q:2/4=60
K:Edor
|:A>ec>e d2BG | A>ec>e d2cA | BE Be d2BG | A>ec>e d>f e2 ?
|: Aece dgBG | Aece AacA | gbge dgBG | A>ec>e d>fe2 ?

